lib/flags/cx-christmas-island.svg

<svg xmlns="http://www.w3.org/2000/svg" fill="none" aria-hidden="true" viewBox="0 0 42 30"><g id="Country=CX - Christmas Island, Size=sm (36x24)" filter="url(#filter0_dd_91_28866)"><g clip-path="url(#clip0_91_28866)"><g id="flag"><mask id="mask0_91_28866" width="36" height="24" x="3" y="2" maskUnits="userSpaceOnUse" style="mask-type:alpha"><rect id="mask" width="36" height="24" x="3" y="2" fill="white"/></mask><g mask="url(#mask0_91_28866)"><g id="contents"><path id="green" fill="#5EAA22" fill-rule="evenodd" d="M3 2H39V26H3V2Z" clip-rule="evenodd"/><path id="blue" fill="#4141DB" fill-rule="evenodd" d="M3 2L39 26H3V2Z" clip-rule="evenodd"/><g id="mark 3"><path id="Star 7" fill="white" fill-rule="evenodd" d="M9.75 11L8.625 11.7321L8.77572 10.5L7.5 10L8.77572 9.5L8.625 8.26795L9.75 9L10.875 8.26795L10.7243 9.5L12 10L10.7243 10.5L10.875 11.7321L9.75 11Z" clip-rule="evenodd"/><path id="Star 7_2" fill="white" fill-rule="evenodd" d="M7.5 17L6.375 17.7321L6.52572 16.5L5.25 16L6.52572 15.5L6.375 14.2679L7.5 15L8.625 14.2679L8.47428 15.5L9.75 16L8.47428 16.5L8.625 17.7321L7.5 17Z" clip-rule="evenodd"/><path id="Star 7_3" fill="white" fill-rule="evenodd" d="M12 23L10.875 23.7321L11.0257 22.5L9.75 22L11.0257 21.5L10.875 20.2679L12 21L13.125 20.2679L12.9743 21.5L14.25 22L12.9743 22.5L13.125 23.7321L12 23Z" clip-rule="evenodd"/><path id="Star 7_4" fill="white" fill-rule="evenodd" d="M13.125 13.5L12.5625 13.866L12.6379 13.25L12 13L12.6379 12.75L12.5625 12.134L13.125 12.5L13.6875 12.134L13.6121 12.75L14.25 13L13.6121 13.25L13.6875 13.866L13.125 13.5Z" clip-rule="evenodd"/></g><g id="mark 2"><path id="Path 12" fill="#FECA00" fill-rule="evenodd" d="M27.2561 14.224C26.8356 13.834 30.6201 12.9177 31.0124 11.7362C31.5322 10.7075 31.1849 9.87392 29.2205 9.14187C27.2561 8.40982 25.2708 6.99434 27.5537 6.99434C29.8366 6.99434 29.8366 7.28368 30.4499 8.13718C31.0632 8.99068 32.3888 9.17351 32.4169 8.13718C32.4169 6.37138 32.6044 6.13389 31.0007 4.59872C29.397 3.06355 35.022 5.22915 34.5571 7.86094C34.0922 10.4927 33.5324 9.64351 33.8878 10.0853C34.2431 10.5271 36.3811 9.15569 36.1141 10.9825C35.3662 12.0331 33.8827 13.5964 27.2561 14.224Z" clip-rule="evenodd"/></g><g id="mark 1"><path id="Oval 13" fill="#FECA00" fill-rule="evenodd" d="M21 19C24.1066 19 26.625 16.7614 26.625 14C26.625 11.2386 24.1066 9 21 9C17.8934 9 15.375 11.2386 15.375 14C15.375 16.7614 17.8934 19 21 19Z" clip-rule="evenodd"/><path id="Path 11" fill="#548650" fill-rule="evenodd" d="M17.5719 12.1622C18.2099 12.0357 19.0824 13.5544 20.6571 12.9848C22.2318 12.4152 22.5606 11.3277 23.3088 11.7257C24.057 12.1237 24.1552 13.082 23.6568 13.5637C23.1584 14.0453 22.3126 14.1592 22.3126 14.768C22.3126 15.3768 22.1468 17.5476 21.8235 16.9185C20.8543 16.2194 21.4456 15.106 20.2517 14.768C19.0578 14.43 18.3327 14.4413 17.4519 14.5839C16.5712 14.7266 18.0436 14.1921 18.3559 13.6847C18.9917 13.141 17.2801 12.343 17.5719 12.1622Z" clip-rule="evenodd"/></g></g></g></g></g></g><defs><filter id="filter0_dd_91_28866" width="42" height="30" x="0" y="0" color-interpolation-filters="sRGB" filterUnits="userSpaceOnUse"><feFlood flood-opacity="0" result="BackgroundImageFix"/><feColorMatrix in="SourceAlpha" result="hardAlpha" values="0 0 0 0 0 0 0 0 0 0 0 0 0 0 0 0 0 0 127 0"/><feOffset dy="1"/><feGaussianBlur stdDeviation="1"/><feColorMatrix values="0 0 0 0 0.0627451 0 0 0 0 0.0941176 0 0 0 0 0.156863 0 0 0 0.06 0"/><feBlend in2="BackgroundImageFix" result="effect1_dropShadow_91_28866"/><feColorMatrix in="SourceAlpha" result="hardAlpha" values="0 0 0 0 0 0 0 0 0 0 0 0 0 0 0 0 0 0 127 0"/><feOffset dy="1"/><feGaussianBlur stdDeviation="1.5"/><feColorMatrix values="0 0 0 0 0.0627451 0 0 0 0 0.0941176 0 0 0 0 0.156863 0 0 0 0.1 0"/><feBlend in2="effect1_dropShadow_91_28866" result="effect2_dropShadow_91_28866"/><feBlend in="SourceGraphic" in2="effect2_dropShadow_91_28866" result="shape"/></filter><clipPath id="clip0_91_28866"><rect width="36" height="24" x="3" y="2" fill="white" rx="2"/></clipPath></defs></svg>

<svg xmlns="http://www.w3.org/2000/svg" fill="none" aria-hidden="true" viewBox="0 0 42 30"><g filter="url(#a)"><g clip-path="url(#b)"><mask id="c" width="36" height="24" x="3" y="2" maskUnits="userSpaceOnUse" style="mask-type:alpha"><path fill="#fff" d="M3 2h36v24H3z"/></mask><g fill-rule="evenodd" clip-rule="evenodd" mask="url(#c)"><path fill="#5EAA22" d="M3 2h36v24H3V2Z"/><path fill="#4141DB" d="m3 2 36 24H3V2Z"/><path fill="#fff" d="m9.75 11-1.125.732.15-1.232L7.5 10l1.276-.5-.151-1.232L9.75 9l1.125-.732-.15 1.232L12 10l-1.276.5.151 1.232L9.75 11ZM7.5 17l-1.125.732.15-1.232L5.25 16l1.276-.5-.151-1.232L7.5 15l1.125-.732-.15 1.232 1.275.5-1.276.5.151 1.232L7.5 17Zm4.5 6-1.125.732.15-1.232L9.75 22l1.276-.5-.151-1.232L12 21l1.125-.732-.15 1.232 1.275.5-1.276.5.151 1.232L12 23Zm1.125-9.5-.563.366.076-.616L12 13l.638-.25-.075-.616.562.366.563-.366-.076.616.638.25-.638.25.075.616-.562-.366Z"/><path fill="#FECA00" d="M27.256 14.224c-.42-.39 3.364-1.306 3.756-2.488.52-1.029.173-1.862-1.791-2.594-1.965-.732-3.95-2.148-1.667-2.148 2.283 0 2.283.29 2.896 1.143.613.854 1.939 1.037 1.967 0 0-1.766.187-2.003-1.416-3.538-1.604-1.535 4.021.63 3.556 3.262-.465 2.632-1.025 1.783-.67 2.224.356.442 2.494-.93 2.227.897-.748 1.051-2.231 2.614-8.858 3.242ZM21 19c3.107 0 5.625-2.239 5.625-5S24.107 9 21 9s-5.625 2.239-5.625 5 2.518 5 5.625 5Z"/><path fill="#548650" d="M17.572 12.162c.638-.126 1.51 1.392 3.085.823 1.575-.57 1.904-1.657 2.652-1.26.748.399.846 1.357.348 1.839-.499.481-1.344.595-1.344 1.204s-.166 2.78-.49 2.15c-.969-.699-.377-1.812-1.571-2.15-1.194-.338-1.92-.327-2.8-.184-.88.143.592-.392.904-.9.636-.543-1.076-1.341-.784-1.522Z"/></g></g></g><defs><clipPath id="b"><rect width="36" height="24" x="3" y="2" fill="#fff" rx="2"/></clipPath><filter id="a" width="42" height="30" x="0" y="0" color-interpolation-filters="sRGB" filterUnits="userSpaceOnUse"><feFlood flood-opacity="0" result="BackgroundImageFix"/><feColorMatrix in="SourceAlpha" result="hardAlpha" values="0 0 0 0 0 0 0 0 0 0 0 0 0 0 0 0 0 0 127 0"/><feOffset dy="1"/><feGaussianBlur stdDeviation="1"/><feColorMatrix values="0 0 0 0 0.0627451 0 0 0 0 0.0941176 0 0 0 0 0.156863 0 0 0 0.06 0"/><feBlend in2="BackgroundImageFix" result="effect1_dropShadow_91_28866"/><feColorMatrix in="SourceAlpha" result="hardAlpha" values="0 0 0 0 0 0 0 0 0 0 0 0 0 0 0 0 0 0 127 0"/><feOffset dy="1"/><feGaussianBlur stdDeviation="1.5"/><feColorMatrix values="0 0 0 0 0.0627451 0 0 0 0 0.0941176 0 0 0 0 0.156863 0 0 0 0.1 0"/><feBlend in2="effect1_dropShadow_91_28866" result="effect2_dropShadow_91_28866"/><feBlend in="SourceGraphic" in2="effect2_dropShadow_91_28866" result="shape"/></filter></defs></svg>
